packages/katcn/src/icons/svg/microscope.svg

<svg width="24" height="25" viewBox="0 0 24 25" fill="none" xmlns="http://www.w3.org/2000/svg">
<path d="M12.4 5.40801H12.2V5.10801C12.2 3.00801 10.5 1.20801 8.4 1.20801C6.3 1.20801 4.6 3.00801 4.6 5.10801V12.208C3.7 12.608 3 13.608 3 14.708V15.508C3 17.008 4.2 18.208 5.6 18.208H11.2C12.6 18.208 13.8 17.008 13.8 15.508V14.708C13.8 13.608 13.1 12.608 12.2 12.208V7.40801H12.4C16 7.40801 19 10.508 19 14.308C19 17.208 17.4 19.708 14.8 20.708C14.3 20.908 14 21.508 14.3 22.008C14.5 22.408 14.8 22.608 15.2 22.608C15.3 22.608 15.5 22.608 15.6 22.508C18.9 21.108 21 17.908 21 14.208C21 9.40801 17.1 5.40801 12.4 5.40801ZM6.6 5.10801C6.6 4.10801 7.4 3.20801 8.4 3.20801C9.4 3.20801 10.2 4.10801 10.2 5.10801V12.008H6.6V5.10801ZM11.8 15.508C11.8 15.908 11.5 16.208 11.2 16.208H5.6C5.3 16.208 5 15.908 5 15.508V14.708C5 14.308 5.3 14.008 5.6 14.008H11.2C11.5 14.008 11.8 14.308 11.8 14.708V15.508Z" fill="black"/>
<path d="M12.4 21.208H4C3.4 21.208 3 21.608 3 22.208C3 22.808 3.4 23.208 4 23.208H12.4C13 23.208 13.4 22.808 13.4 22.208C13.4 21.608 13 21.208 12.4 21.208Z" fill="black"/>
</svg>

<svg xmlns="http://www.w3.org/2000/svg" fill="none" viewBox="0 0 24 25"><path fill="#000" d="M12.4 5.408h-.2v-.3c0-2.1-1.7-3.9-3.8-3.9s-3.8 1.8-3.8 3.9v7.1c-.9.4-1.6 1.4-1.6 2.5v.8c0 1.5 1.2 2.7 2.6 2.7h5.6c1.4 0 2.6-1.2 2.6-2.7v-.8c0-1.1-.7-2.1-1.6-2.5v-4.8h.2c3.6 0 6.6 3.1 6.6 6.9 0 2.9-1.6 5.4-4.2 6.4-.5.2-.8.8-.5 1.3q.3.6.9.6c.1 0 .3 0 .4-.1 3.3-1.4 5.4-4.6 5.4-8.3 0-4.8-3.9-8.8-8.6-8.8m-5.8-.3c0-1 .8-1.9 1.8-1.9s1.8.9 1.8 1.9v6.9H6.6zm5.2 10.4c0 .4-.3.7-.6.7H5.6c-.3 0-.6-.3-.6-.7v-.8c0-.4.3-.7.6-.7h5.6c.3 0 .6.3.6.7z"/><path fill="#000" d="M12.4 21.208H4c-.6 0-1 .4-1 1s.4 1 1 1h8.4c.6 0 1-.4 1-1s-.4-1-1-1"/></svg>
